X: 17778
T: Honeycomb, The
R: reel
M: 4/4
K: Gmajor
ge|:dGBG F~A3|BA (3Bcd efge|dGBG F~A3|BGAF D~G3:|
|:d~g3 bgag|dgbg ageg|d~g3 bgaz|(3Bcd ef g2Bc|
d~g3 bgag|dgbg a2ga|bgaf (3gfe dA|1 (3Bcd ef g2 Bc:|2 (3Bcd ef g2||

